X: 33
T: \"Artemarschen
O: V\"armland
R: march
S: http://www.folksweden.com/files/_rtemarschen.pdf [Tim Rued]
Z: 2021 John Chambers <jc:trillian.mit.edu>
M: 2/4
L: 1/16
K: D
A2 |\
"D"d2f2 f2ed | d4 "A7"c2ef | g2g2 g2fe | "D"a3f d2A2 || "D"d2f2 f2ed |
d4 "A7"c2ef | g2ba g2ec | "D"d6 ::  ga | "G"b2b2 b2fg | "D"a2a2 a2ef | "A7"g2g2 g2fe |
"D"a3f d2ga || "G"b2b2 b2fg | "D"a2a2 a2gf | "A7"e2ba g2ec | "D"d6 :|

